priv/static/svgs/icons_new/sport-horse-racing.svg

<svg width="32" height="32" viewBox="0 0 32 32" fill="none" xmlns="http://www.w3.org/2000/svg">
<path d="M16.6731 13.57C16.8174 13.3345 16.7435 13.0267 16.5081 12.8824C16.2726 12.7381 15.9648 12.812 15.8205 13.0474L16.6731 13.57ZM15.702 17.5159L16.1806 17.3707L16.1775 17.3612L15.702 17.5159ZM18.6677 20.6708L18.4771 21.133L18.4785 21.1336L18.6677 20.6708ZM20.7545 22.24L21.1816 21.9801C21.176 21.9709 21.17 21.9618 21.1638 21.9529L20.7545 22.24ZM21.1309 22.8588L21.5581 22.5989L21.1309 22.8588ZM21.7555 24.5339L21.2854 24.704C21.3154 24.7868 21.3667 24.8603 21.4341 24.9169L21.7555 24.5339ZM22.8067 25.4159L22.4853 25.7989C22.6303 25.9205 22.8314 25.9499 23.005 25.8749L22.8067 25.4159ZM25.5231 24.2424L25.7214 24.7014C25.9094 24.6201 26.0289 24.4324 26.0229 24.2276L25.5231 24.2424ZM23.7747 9.42538C23.7067 9.15773 23.4346 8.99585 23.167 9.06382C22.8993 9.13178 22.7374 9.40385 22.8054 9.67149L23.7747 9.42538ZM20.8283 14.5482L20.5069 14.9312L20.8283 14.5482ZM21.7231 13.4818L21.4017 13.8648L21.7231 13.4818ZM21.9726 21.316C22.2442 21.2663 22.4241 21.0058 22.3744 20.7342C22.3247 20.4625 22.0642 20.2827 21.7925 20.3324L21.9726 21.316ZM18.1006 19.8556C17.8609 19.7187 17.5554 19.802 17.4185 20.0418C17.2815 20.2816 17.3649 20.587 17.6047 20.724L18.1006 19.8556ZM16.2799 26.3821C16.4085 26.6265 16.7108 26.7204 16.9552 26.5918C17.1996 26.4632 17.2935 26.1609 17.1649 25.9165L16.2799 26.3821ZM17.1054 19.9657C17.2829 19.7542 17.2553 19.4388 17.0438 19.2613C16.8323 19.0838 16.5169 19.1114 16.3394 19.3229L17.1054 19.9657ZM22.8865 9.18097C22.7162 9.39833 22.7543 9.71261 22.9717 9.88293C23.1891 10.0533 23.5033 10.0151 23.6737 9.79777L22.8865 9.18097ZM25.0705 7.20451L25.4641 7.51291C25.6304 7.30067 25.5985 6.9948 25.3919 6.82149L25.0705 7.20451ZM9.27085 11.09L9.65387 11.4114L9.27085 11.09ZM5.63584 17.8861C5.59247 18.1588 5.7784 18.4151 6.05111 18.4584C6.32383 18.5018 6.58006 18.3159 6.62343 18.0432L5.63584 17.8861ZM24.8982 7.05991L25.2196 6.67689V6.67689L24.8982 7.05991ZM23.9471 6.54048L24.0859 6.06014L23.9471 6.54048ZM17.6106 6.82722C17.567 6.55454 17.3106 6.36886 17.0379 6.41249C16.7652 6.45612 16.5795 6.71253 16.6232 6.98521L17.6106 6.82722ZM18.8224 20.7303C18.866 21.003 19.1224 21.1886 19.3951 21.145C19.6678 21.1014 19.8535 20.845 19.8098 20.5723L18.8224 20.7303ZM8.02741 13.7743C7.98835 13.5009 7.73509 13.311 7.46172 13.35C7.18835 13.3891 6.9984 13.6424 7.03746 13.9157L8.02741 13.7743ZM15.4424 22.7675C15.7112 22.8308 15.9803 22.6641 16.0436 22.3953C16.1068 22.1265 15.9402 21.8574 15.6714 21.7941L15.4424 22.7675ZM15.8205 13.0474C14.9371 14.4887 14.7462 16.1943 15.2266 17.6706L16.1775 17.3612C15.7903 16.1711 15.9383 14.7688 16.6731 13.57L15.8205 13.0474ZM15.2236 17.6612C15.7166 19.2849 16.9364 20.4976 18.4771 21.133L18.8583 20.2085C17.5599 19.6731 16.5759 18.6732 16.1805 17.3707L15.2236 17.6612ZM18.4785 21.1336C19.2635 21.4545 19.8991 21.8914 20.3451 22.5272L21.1638 21.9529C20.5765 21.1159 19.7613 20.5777 18.8569 20.2079L18.4785 21.1336ZM20.3273 22.4999L20.7038 23.1187L21.5581 22.5989L21.1816 21.9801L20.3273 22.4999ZM20.7038 23.1187C20.8651 23.3838 20.943 23.588 21.0117 23.8132C21.0781 24.0311 21.1545 24.3424 21.2854 24.704L22.2257 24.3637C22.1047 24.0293 22.0569 23.8125 21.9682 23.5215C21.8817 23.2379 21.7732 22.9525 21.5581 22.5989L20.7038 23.1187ZM21.4341 24.9169L22.4853 25.7989L23.1281 25.0329L22.0769 24.1508L21.4341 24.9169ZM23.005 25.8749L25.7214 24.7014L25.3248 23.7834L22.6084 24.9569L23.005 25.8749ZM26.0229 24.2276C25.8692 19.0247 25.0706 14.5291 23.7747 9.42538L22.8054 9.67149C24.0896 14.7288 24.8724 19.1489 25.0233 24.2571L26.0229 24.2276ZM20.5069 14.9312C21.0129 15.3558 21.7676 15.2907 22.1925 14.7843L21.4265 14.1415C21.3572 14.2241 21.2333 14.2354 21.1497 14.1652L20.5069 14.9312ZM22.1925 14.7843C22.6174 14.2779 22.5505 13.5233 22.0445 13.0988L21.4017 13.8648C21.4854 13.935 21.4958 14.0589 21.4265 14.1415L22.1925 14.7843ZM22.0445 13.0988C21.5386 12.6742 20.7838 12.7393 20.3589 13.2457L21.125 13.8885C21.1943 13.8059 21.3181 13.7946 21.4017 13.8648L22.0445 13.0988ZM20.3589 13.2457C19.934 13.7521 20.001 14.5067 20.5069 14.9312L21.1497 14.1652C21.0661 14.095 21.0557 13.9711 21.125 13.8885L20.3589 13.2457ZM21.7925 20.3324C20.3959 20.5881 19.1041 20.4287 18.1006 19.8556L17.6047 20.724C18.8618 21.4419 20.4062 21.6028 21.9726 21.316L21.7925 20.3324ZM17.1649 25.9165C16.4762 24.6077 16.1667 23.4721 16.1728 22.4963C16.1789 21.5316 16.4931 20.6954 17.1054 19.9657L16.3394 19.3229C15.5796 20.2284 15.1804 21.2889 15.1728 22.49C15.1653 23.68 15.5418 24.9794 16.2799 26.3821L17.1649 25.9165ZM23.6737 9.79777L25.4641 7.51291L24.677 6.89611L22.8865 9.18097L23.6737 9.79777ZM25.3919 6.82149L25.2196 6.67689L24.5768 7.44294L24.7491 7.58753L25.3919 6.82149ZM24.0859 6.06014C18.753 4.51872 12.737 6.18134 8.88783 10.7686L9.65387 11.4114C13.2447 7.13197 18.8496 5.58756 23.8083 7.02082L24.0859 6.06014ZM8.88783 10.7686C7.12803 12.8659 6.0407 15.3403 5.63584 17.8861L6.62343 18.0432C7.0005 15.6721 8.0133 13.3666 9.65387 11.4114L8.88783 10.7686ZM25.2196 6.67689C24.8946 6.40422 24.5132 6.18365 24.0859 6.06014L23.8083 7.02082C24.0826 7.1001 24.3423 7.24617 24.5768 7.44294L25.2196 6.67689ZM16.6232 6.98521L18.8224 20.7303L19.8098 20.5723L17.6106 6.82722L16.6232 6.98521ZM7.03746 13.9157C7.33022 15.9651 8.42818 17.9383 9.93717 19.5105C11.4468 21.0834 13.3978 22.2865 15.4424 22.7675L15.6714 21.7941C13.8415 21.3635 12.0551 20.273 10.6586 18.8181C9.26147 17.3624 8.28444 15.5736 8.02741 13.7743L7.03746 13.9157Z" fill="black"/>
</svg>

<svg width="32" height="32" viewBox="0 0 32 32" fill="none" xmlns="http://www.w3.org/2000/svg">
  <symbol id="item" viewBox="0 0 32 32"  fill="none">
    <path d="M16.673 13.57a.5.5 0 0 0-.852-.523l.852.523Zm-.971 3.946.479-.145-.004-.01-.475.155Zm2.966 3.155-.19.462.19-.462Zm2.087 1.569.427-.26a.529.529 0 0 0-.018-.027l-.41.287Zm.376.619.427-.26-.427.26Zm.625 1.675-.47.17a.5.5 0 0 0 .148.213l.322-.383Zm1.05.882-.32.383a.5.5 0 0 0 .519.076l-.198-.46Zm2.717-1.174.198.46a.5.5 0 0 0 .302-.474l-.5.014ZM23.775 9.425a.5.5 0 0 0-.97.246l.97-.246Zm-2.947 5.123-.321.383.321-.383Zm.895-1.066-.321.383.321-.383Zm.25 7.834a.5.5 0 1 0-.18-.984l.18.984Zm-3.872-1.46a.5.5 0 1 0-.496.868l.496-.868Zm-1.821 6.526a.5.5 0 1 0 .885-.466l-.885.466Zm.825-6.416a.5.5 0 0 0-.766-.643l.766.643ZM22.887 9.18a.5.5 0 1 0 .787.617l-.787-.617Zm2.183-1.976.394.308a.5.5 0 0 0-.072-.692l-.322.384ZM9.27 11.09l.384.321-.383-.321Zm-3.634 6.796a.5.5 0 1 0 .987.157l-.987-.157ZM24.898 7.06l.322-.383-.322.383Zm-.95-.52.138-.48-.139.48Zm-6.337.287a.5.5 0 1 0-.988.158l.988-.158Zm1.211 13.903a.5.5 0 1 0 .988-.158l-.988.158ZM8.027 13.774a.5.5 0 0 0-.99.142l.99-.142Zm7.415 8.993a.5.5 0 1 0 .23-.973l-.23.973Zm.378-9.72c-.883 1.442-1.074 3.147-.593 4.624l.95-.31c-.387-1.19-.239-2.592.496-3.791l-.852-.523Zm-.596 4.614c.493 1.624 1.712 2.837 3.253 3.472l.381-.924c-1.298-.536-2.282-1.536-2.678-2.838l-.956.29Zm3.255 3.473c.785.32 1.42.757 1.866 1.393l.819-.574c-.588-.837-1.403-1.375-2.307-1.745l-.378.926Zm1.848 1.366.377.619.854-.52-.376-.619-.855.52Zm.377.619c.161.265.239.469.308.694.066.218.142.53.273.891l.94-.34c-.12-.335-.168-.552-.257-.843a3.803 3.803 0 0 0-.41-.922l-.854.52Zm.73 1.798 1.051.882.643-.766-1.051-.882-.643.766Zm1.571.958 2.716-1.174-.396-.918-2.717 1.174.397.918Zm3.018-1.647c-.154-5.203-.952-9.699-2.248-14.803l-.97.246c1.285 5.058 2.067 9.478 2.218 14.586l1-.03Zm-5.516-9.297c.506.425 1.26.36 1.685-.147l-.765-.643a.196.196 0 0 1-.277.024l-.643.766Zm1.685-.147a1.196 1.196 0 0 0-.148-1.685l-.642.766c.083.07.094.194.024.277l.767.642Zm-.148-1.685a1.196 1.196 0 0 0-1.685.147l.766.643a.196.196 0 0 1 .277-.024l.642-.766Zm-1.685.147a1.196 1.196 0 0 0 .148 1.685l.643-.766a.196.196 0 0 1-.025-.276l-.766-.643Zm1.433 7.086c-1.396.256-2.688.097-3.691-.476l-.496.868c1.257.718 2.801.879 4.368.592l-.18-.984Zm-4.627 5.584c-.689-1.308-.998-2.444-.992-3.42.006-.964.32-1.8.932-2.53l-.766-.643a4.85 4.85 0 0 0-1.166 3.167c-.008 1.19.369 2.49 1.107 3.892l.885-.466Zm6.509-16.118 1.79-2.285-.787-.617-1.79 2.285.787.617Zm1.718-2.977-.172-.144-.643.766.172.145.643-.767Zm-1.306-.76c-5.333-1.542-11.349.12-15.198 4.708l.766.642c3.59-4.279 9.196-5.823 14.154-4.39l.278-.96ZM8.888 10.768a14.65 14.65 0 0 0-3.252 7.117l.987.157a13.65 13.65 0 0 1 3.03-6.632l-.765-.642ZM25.22 6.677a3.12 3.12 0 0 0-1.134-.617l-.278.96c.275.08.534.226.769.423l.643-.766Zm-8.597.308 2.2 13.745.987-.158-2.2-13.745-.987.158Zm-9.586 6.93c.293 2.05 1.391 4.023 2.9 5.596 1.51 1.572 3.46 2.776 5.505 3.256l.23-.973c-1.83-.43-3.617-1.521-5.013-2.976-1.398-1.456-2.375-3.244-2.632-5.044l-.99.142Z" fill="currentColor"/>
  </symbol>
</svg>
